X: 40033
T: Three Wheeled Wagon, The
R: jig
M: 6/8
K: Eminor
|:~B3 BAF|dBA FED|~E3 EDF|~E3 EFA|
~B3 BAF|dBA Bde|gfe fed|1 ~e3 edc:|2 ~e3 ede||
|:~g3 gfe|~f3 f2d|~e3 edB|GAB GAB|
[1 ~g3 gfe|~f3 f2g|agf gfe|dBd e2B:|
[2 BgB gfe|fAf f2g|agf gfe|dBd e3||

